svgs/sharp-light/arrows-rotate.svg

<svg xmlns="http://www.w3.org/2000/svg" viewBox="0 0 512 512"><!--! Font Awesome Pro 6.6.0 by @fontawesome - https://fontawesome.com License - https://fontawesome.com/license (Commercial License) Copyright 2024 Fonticons, Inc. --><path d="M66.7 224C81.9 133.2 160.9 64 256 64c71.1 0 133.1 38.6 166.3 96L368 160l-16 0 0 32 16 0 69.1 0 26.9 0 6.7 0 9.3 0 0-16 0-96 0-16-32 0 0 16 0 60.6C408.8 75.5 337.5 32 256 32C143.2 32 49.8 115.4 34.3 224l32.4 0zM256 448c-71.1 0-133.1-38.6-166.3-96l54.5 0 16 0 0-32-16 0-69.3 0-26.7 0-6.9 0-9.1 0 0 16 0 96 0 16 32 0 0-16 0-60.2C103.4 436.6 174.7 480 256 480c112.8 0 206.2-83.4 221.7-192l-32.4 0C430.1 378.8 351.1 448 256 448z"/></svg>

<svg xmlns="http://www.w3.org/2000/svg" viewBox="0 0 512 512"><!--! Font Awesome Pro 6.4.2 by @fontawesome - https://fontawesome.com License - https://fontawesome.com/license (Commercial License) Copyright 2023 Fonticons, Inc. --><path d="M66.7 224C81.9 133.2 160.9 64 256 64c71.1 0 133.1 38.6 166.3 96H368 352v32h16 69.1H464h6.7H480V176 80 64H448V80v60.6C408.8 75.5 337.5 32 256 32C143.2 32 49.8 115.4 34.3 224H66.7zM256 448c-71.1 0-133.1-38.6-166.3-96h54.5 16V320h-16H74.9 48.2 41.3 32.2v16 96 16h32V432 371.8C103.4 436.6 174.7 480 256 480c112.8 0 206.2-83.4 221.7-192H445.4C430.1 378.8 351.1 448 256 448z"/></svg>
